X: 053
M: C|
L: 1/8
K: D
(Ad).d.d (df).f.a | gfed (ce)A2 | (Ad).d.d (df).f.a | gfge d2d :||: f |
(dA)A2 (Bc)d2 | AFED (DE)E2 | (DA).A.A (.Bc).d.e | fgef d2d :|


